X:1
T:Shining City, 87.87 D
T:Shining City, 87.87 D
T:George Frederick Root, 1876
T:Public Domain Courtesy of the Cyber Hymnal™
C:George Frederick Root, 1876
Z:Public Domain
Z:Courtesy of the Cyber Hymnal™
%%score ( 1 2 ) ( 3 4 )
L:1/8
Q:1/4=110
M:3/4
K:G
V:1 treble 
V:2 treble 
V:3 bass 
V:4 bass 
V:1
 D2 | D[DG] [DG]2 [FA]2 | [GB]G [FA]2 [GB]2 | [Gd]3 [GB] [DA][DG] | [CE]2 [EG]2 [CE]2 | %5
 D[DG] [DG]2 [FA]2 | [GB]G [FA]2 [GB]2 | [Gd]3 [GB] [DA][DG] | [DA]2 [DG]2 [GB]2 | %9
 [Gd][GB] [Gd]2 [Ge]2 | [Gd][GB] [FA]2 [GB]2 | [Gd][GB] [Ge]2 [Gd]2 | [GB]2 [FA]2 D2 | %13
 D[DG] [DG]2 [FA]2 | [GB]G [FA]2 [GB]2 | [Gd]3 [GB] [DA][DG] | [DA]2 [DG]6 |] %17
V:2
 D2 | D x5 | x6 | x6 | x6 | D x5 | x6 | x6 | x6 | x6 | x6 | x6 | x4 D2 | D x5 | x G x4 | x6 | x8 |] %17
V:3
 D,2 | [B,,G,][G,,B,] [B,,D]2 [D,D]2 | [G,D][B,,D] [D,D]2 [G,D]2 | [B,D]3 [G,D] [F,C][G,B,] | %4
 [C,C]2 [C,C]2 [C,G,]2 | [B,,G,][G,,B,] [B,,D]2 [D,D]2 | [G,D][B,,D] [D,D]2 [G,D]2 | %7
 [B,D]3 [G,D] [F,C][G,B,] | [D,C]2 [G,B,]2 G,2 | [G,B,]G, [G,B,]2 [G,C]2 | %10
 [G,B,][G,D] [D,D]2 [G,D]2 | [G,B,]G, [G,C]2 [G,B,]2 | [D,D]2 [D,D]2 D,2 | %13
 [B,,G,][G,,B,] [B,,D]2 [D,D]2 | [G,D][B,,D] [D,D]2 [G,D]2 | [B,D]3 [G,D] [F,C][G,B,] | %16
 [D,C]2 [G,B,]6 |] %17
V:4
 D,2 | x6 | x6 | x6 | x6 | x6 | x6 | x6 | x4 G,2 | x G, x4 | x6 | x G, x4 | x4 D,2 | x6 | x6 | x6 | %16
 x8 |] %17

